X:1
T:Ingiustissim'amor
T:Ingiustissim'amor
T:Jacques Arcadelt
T:Source : Il primo libro di madrigali a 3 voci---Venetia---A.Gardano---1559. Editor : André Vierendeels (21/10/14).
C:Jacques Arcadelt
%%score [ 1 2 3 ]
L:1/8
Q:1/4=120
M:2/2
K:C
V:1 treble nm="Canto" snm="C"
V:2 treble-8 nm="Tenor" snm="T"
V:3 bass nm="Bass" snm="B"
V:1
 G4 F2 E2 | E2 D2 E2 G2 | A2 B2 c4 | B4 z2 c2 | A2 G2 c3 B | A2 G2 A4- | A2 G2 F4 | E2 G3 G G2 | %8
w: In- giu- stis-|si- m'a- mor per-|che si ra-|ro cor-|ri- spon- den- ti|fai no- stri|_ de- si-|re, on- de per-|
 A2 B2 G2 G2 | c2 BA B2 G2 | AB c3 B/A/ B2 | c2 G2 A2 c2 | B2 A2 G2 z G | F2 G2 G2 F2 | G4 E2 A2- | %15
w: fi- d'ad- vien che|t'e _ _ _ si|ca- * * * * *|ro, el dis- cor-|de vo- lar, el|dis- cor- de vo-|lar ch'in dui|
 AG G3 F/E/ F2 | G4 E2 E2 | D2 C2 F4 | E8- | E4 G4- | G4 G4- | G2 G2 A3 G | F2 E2 D4 | %23
w: _ _ cor _ _ _|mi- * ri|non mi las-|si|_ al|_ fa-|* cil gua- *|* d'e chia-|
 C2 E2 E2 E2 | F4 E2 G2 | G2 G2 A4 | G8 | z2 G2 G2 F2 | G3 F E4 | D4 z2 G2 | G2 G2 A2 A2 | B4 G4 | %32
w: ro, el piu cie-|co, et nel|piu cie- *|co|et mag- gior|fon- do ti-|ri, da|chi de- sia'l mi'a-|mor tu|
 c4 B4 | A2 G3 F/E/ F2 | G4 z2 G2 | A2 B2 c3 B | A2 G2 c2 B2 | A2 G3 F/E/ F2 | G4 z2 G2 | %39
w: mi ri-|chia- * * * *|mi, et|chi m'ha'in o- dio|vuoi ch'a- do- ri'et|a- * * * *|mi, et|
 A2 B2 c2 B2 | A2 G2 F2 G2 | A2 G4 FE |"^#" G2 F2 G4- | G8 | z2 G2 G3 F | E8 | D8 |] %47
w: chi m'ha'in o- dio|vuoi ch'a- do- ri'et|a- * * *|* * mi,|_|ch'a- do- ri'et|a-|mi.|
V:2
 e4 d2 c2 | A2 B2 c2 e2 | ef g3 f/e/ f2 | g2 g2 e2 c2 | f2 e2 c2 d2 | e3 d c2 B2 | AB c3 B/A/ B2 | %7
w: In- giu- stis-|si- m'a- mor per|che si ra- * * *|ro cor- ris- pon-|den- ti fai no-|stri _ _ de-|si- * * * * *|
 c4 c3 c | c2 d2 e2 e2- | e2 dc d2 e2 | fedc d4 | c4 z2 c2 | d2 f2 e2 d2 | c2 e2 d2 c2 | %14
w: ri, on- de|per- fi- d'ad- vien|_ _ _ _ che|t'e _ _ si ca-|ro, el|dis- cor- de vo-|ler ch'in dui cor|
 d2 B2 c2 AB | cd e3 d c2- | cB/A/ B2 c2 c2 | f2 e2 d4 | c2 c2 A2 G2 | c4 B4 | e4 d4- | %21
w: mi- * * * *||* * * * ri, ir|nin mi las-|si, ir non mi|las- si|al fa-|
 d2 e2 f3 e | d2 c3 B/A/ B2 | c2 c2 c2 c2 | d4 c2 e2 | e2 e2 f4 | e2 e2 e2 d2 | e3 d c2 c2 | %28
w: * cil gia- d'e|chia- * * * *|ro, et nel piu|cie- co, et|nel piu cie-|co et mag- gior|fon- * * do|
 d2 e3 d c2- | c2 BA B4- | B4 z2 d2 | d2 d2 e2 e2 | c4 d4 | e2 d2 c3 d | e2 dc d4 | z2 d2 c2 d2 | %36
w: ti- * * *|* * * ri,|_ da|chi de- sia'l mi'a-|mor tu|mi ri- chia- *|* * * mi,|et chi m'ha'in|
 e3 d c2 d2 | e2 d3 c c2- | cB/A/ B2 c4 | z2 d2 c2 d2 | e3 d c2 B2 | A2 c3 B AG | A4 G2 d2 | %43
w: o- dio vuoi ch'a-|do- ri'et _ a-|* * * * mi,|et chi m'ha'in|o- dio vuoi ch'a-|do- ri'et _ _ _|a- mi, et|
 e2 d2 e2 e2 | d2 e2 e2 d2 | c6 BA | B8 |] %47
w: chi m'ha'in o- dio|vuoi ch'a- do- ri'et|a- * *|mi.|
V:3
 C,4 D,2 E,2 | F,2 G,2 C,2 C2 | C2 B,2 A,4 | G,4 C,4 | z2 C2 A,2 G,2 | C3 B, A,2 G,2 | %6
w: In- giu- stis-|si- m'a- mor pet|che si ra-|* ro|cor- ris- pon-|den- ti fai no-|
 F,2 E,2 D,4 | C,8 | z2 G,3 G, G,2 | A,2 B,2 G,2 C2 | F,2 A,2 G,4 | C,4 z4 | z4 z2 G,2 | %13
w: stri de- si-|ri,|on- de per-|fi- d'ad- vien che|t'e si ca-|ro,|et|
 A,2 C2 B,2 A,2 | G,4 C,2 F,2- | F,2 G,2 A,4 | G,4 C,4 | z8 | C,4 C2 B,2 | A,4 E,4 | C,4 G,4- | %21
w: dis- cor- de vo-|ler ch'in dui|_ cor mi-|* ri,||ir non mi|las- si|al fa-|
 G,2 G,2 F,4- | F,2 C,2 G,4 | C,8 | z4 z2 C,2 | C,2 C,2 F,4 | C,2 C2 C2 B,2 | C3 B, A,4 | %28
w: * cil gia-|* d'e chia-|ro,|et|nel piu cie-|co et mag- gior|fon- do ti-|
 G,2 C,3 D, E,F, | G,2 G,2 G,3 F, | E,4 D,4 | z2 G,2 G,2 G,2 | A,2 A,2 B,2 G,2 | C2 B,2 A,4 | G,8 | %35
w: ri, mag- * * *|* gior fon- do|ti- ri,|da chi de-|sia'l m'a- mor tu|mi ri- chia-|mi,|
 z2 G,2 A,2 B,2 | C3 B, A,2 G,2 | C2 B,2 A,4 | G,4 C,4 | z2 G,2 A,2 B,2 | C3 B, A,2 G,2 | %41
w: et chi m'ha'in|o- dio vuoi ch'a-|do- ri'et a-|* mi,|et chi m'ha'in|o- dio vuoi ch'a-|
 F,2 E,2 D,4- | D,4 G,2 G,2 | C2 B,2 C2 C2 | G,2 C,2 C,2 G,2 | C,3 D, E,2 F,2 | G,8 |] %47
w: do- ri'et a-|* mi, et|chi m'ha'in o- dio|vuoi ch'a- do- ri'et|a- * * *|mi.|

